X: 32491
T: Plane Of The Plank, The
R: hornpipe
M: 4/4
K: Gmajor
|(3DEF|GABd ~g2fg|eGce d2Bd|cece ~d2BG|DFAB cAFc|
(3BAG Bd ~g2fg|eceg f2ga|bgdB cECG|FDBA G2:|
|:Bc|dB~B2 dAFc|BAGF G2AB|cBcd edcB|Adfg ~a2fa|
g2dg eGce|~d2Bd cece|dcAG FDBA|~G2 FAG2:|

